X: 111
T: Missa Pro fidelibus defunctis / Offertorium
N: Derived from Rue1024d-Missa_Pro_fidelibus_defunctis-Offertorium.krn
C: Pierre de la Rue
%%abc-version 2.0
%%abcx-abcm2ps-target-version 5.9.1 (29 Sep 2008)
%%abc-creator hum2abc beta
%%abcx-conversion-date 2019/02/17 08:01:14
%%abc-edited-by Jesse Rodin
%%abc-edited-by Chris Gage 04-23-2013
%%abcx-initial-encoding-date 2013/08/01/
%%humdrum-veritas 1724681730
%%humdrum-veritas-data 2619006170
%%linebreak <none>
%%barnumbers 0
L: 1/4
M: 3/1
Q: 1/2=120
V: 1 clef=treble
V: 2 clef=treble-8
V: 3 clef=treble-8
V: 4 clef=bass
V: 5 clef=bass
K: C
[V:1] E8D4 | 
[V:2] c8B4 | 
[V:3] z12 | 
[V:4] z12 | 
[V:5] z12 | 
[V:1] E4F6G2 | 
[V:2] c4A6G2 | 
[V:3] z12 | 
[V:4] z12 | 
[V:5] z12 | 
[V:1] G8z4 | 
[V:2] G8G4- | 
[V:3] z12 | 
[V:4] z12 | 
[V:5] z12 | 
[V:1] D6D2D4- | 
[V:2] G2G2G8 | 
[V:3] z12 | 
[V:4] z12 | 
[V:5] z12 | 
[V:1] D4D4D4 | 
[V:2] G4G4F4 | 
[V:3] z12 | 
[V:4] z12 | 
[V:5] z12 | 
[V:1] D4D4C4 | 
[V:2] _B4_B4A4- | 
[V:3] z12 | 
[V:4] z12 | 
[V:5] z12 | 
[V:1] C4F6E2 | 
[V:2] A4F8 | 
[V:3] z12 | 
[V:4] z12 | 
[V:5] z12 | 
[V:1] E4D6C2 | 
[V:2] G6F2F4- | 
[V:3] z12 | 
[V:4] z12 | 
[V:5] z12 | 
[V:1] C6B,2B,4 | 
[V:2] F2E2D2C2D4 | 
[V:3] z12 | 
[V:4] z12 | 
[V:5] z12 | 
[V:1] C12 | 
[V:2] C8z4 | 
[V:3] z12 | 
[V:4] z12 | 
[V:5] z12 | 
[V:1] z12 | 
[V:2] C4D4F4 | 
[V:3] z12 | 
[V:4] z12 | 
[V:5] z12 | 
[V:1] C4D4F4 | 
[V:2] E6D2D4- | 
[V:3] z12 | 
[V:4] z12 | 
[V:5] z12 | 
[V:1] E6D2D4- | 
[V:2] D2C2C4D4 | 
[V:3] z12 | 
[V:4] z12 | 
[V:5] z12 | 
[V:1] D2C2C8 | 
[V:2] F4E6D2 | 
[V:3] z12 | 
[V:4] z12 | 
[V:5] z12 | 
[V:1] D6E2F4 | 
[V:2] D4d6c2 | 
[V:3] z12 | 
[V:4] z12 | 
[V:5] z12 | 
[V:1] E4F6E2 | 
[V:2] c4d4D4 | 
[V:3] z12 | 
[V:4] z12 | 
[V:5] z12 | 
[V:1] D8^C4 | 
[V:2] F4E8 | 
[V:3] z12 | 
[V:4] z12 | 
[V:5] z12 | 
[V:1] D12 | 
[V:2] D8z4 | 
[V:3] z12 | 
[V:4] z12 | 
[V:5] z12 | 
[V:1] z12 | 
[V:2] F8C4 | 
[V:3] z12 | 
[V:4] z12 | 
[V:5] z12 | 
[V:1] F8C4 | 
[V:2] D4F6E2 | 
[V:3] z12 | 
[V:4] z12 | 
[V:5] z12 | 
[V:1] D4F6E2 | 
[V:2] D4A8 | 
[V:3] z12 | 
[V:4] z12 | 
[V:5] z12 | 
[V:1] E8D4- | 
[V:2] G6F2G2F2 | 
[V:3] z12 | 
[V:4] z12 | 
[V:5] z12 | 
[V:1] D4D8 | 
[V:2] G4F4D4- | 
[V:3] z12 | 
[V:4] z12 | 
[V:5] z12 | 
[V:1] F8C4 | 
[V:2] D4A8 | 
[V:3] z12 | 
[V:4] z12 | 
[V:5] z12 | 
[V:1] D4F6E2 | 
[V:2] G4F4G4- | 
[V:3] z12 | 
[V:4] z12 | 
[V:5] z12 | 
[V:1] E4D2C2D2C2 | 
[V:2] G2F2G2A2G4- | 
[V:3] z12 | 
[V:4] z12 | 
[V:5] z12 | 
[V:1] D6C2D4 | 
[V:2] G2F2G2A2G4 | 
[V:3] z12 | 
[V:4] z12 | 
[V:5] z12 | 
[V:1] E4D8 | 
[V:2] c6B2B4 | 
[V:3] z12 | 
[V:4] z12 | 
[V:5] z12 | 
[V:1] G6^F2F4 | 
[V:2] G4A8 | 
[V:3] z12 | 
[V:4] z12 | 
[V:5] z12 | 
[V:1] G12 | 
[V:2] G12 | 
[V:3] z12 | 
[V:4] z12 | 
[V:5] G,,8B,,4 | 
[V:1] z12 | 
[V:2] z12 | 
[V:3] C8E4 | 
[V:4] z12 | 
[V:5] C,4C,4A,,4- | 
[V:1] z12 | 
[V:2] z12 | 
[V:3] F4F4E4 | 
[V:4] z12 | 
[V:5] A,,4A,,8 | 
[V:1] z12 | 
[V:2] z12 | 
[V:3] D8E4- | 
[V:4] z12 | 
[V:5] B,,8A,,4 | 
[V:1] z12 | 
[V:2] z12 | 
[V:3] E4G4E4 | 
[V:4] z12 | 
[V:5] A,,4G,,8 | 
[V:1] z12 | 
[V:2] z12 | 
[V:3] D8z4 | 
[V:4] z12 | 
[V:5] G,,8G,,4- | 
[V:1] z12 | 
[V:2] z12 | 
[V:3] D8D4- | 
[V:4] z12 | 
[V:5] G,,4F,,8 | 
[V:1] z12 | 
[V:2] z12 | 
[V:3] D4C8 | 
[V:4] z12 | 
[V:5] _B,,6A,,2A,,4 | 
[V:1] z12 | 
[V:2] z12 | 
[V:3] F6E2E4 | 
[V:4] z12 | 
[V:5] _B,,4C,6B,,2 | 
[V:1] z12 | 
[V:2] z12 | 
[V:3] F4G6F2 | 
[V:4] z12 | 
[V:5] A,,4G,,8 | 
[V:1] z12 | 
[V:2] z12 | 
[V:3] E4D6C2 | 
[V:4] z12 | 
[V:5] C,6B,,2B,,4 | 
[V:1] z12 | 
[V:2] z12 | 
[V:3] C8z4 | 
[V:4] z12 | 
[V:5] C,8z4 | 
[V:1] E8E4- | 
[V:2] c8c4 | 
[V:3] G8A4- | 
[V:4] z12 | 
[V:5] C,8C,4- | 
[V:1] E4F8 | 
[V:2] e4d6B2 | 
[V:3] A4A8 | 
[V:4] z12 | 
[V:5] C,4D,8 | 
[V:1] G6F2E2D2 | 
[V:2] B12- | 
[V:3] G12- | 
[V:4] z12 | 
[V:5] G,,12- | 
[V:1] D8z4 | 
[V:2] B12 | 
[V:3] G8z4 | 
[V:4] z12 | 
[V:5] G,,12 | 
[V:1] D8D4 | 
[V:2] A8B4 | 
[V:3] F8G4 | 
[V:4] z12 | 
[V:5] D,8G,,4 | 
[V:1] D4^C6D2 | 
[V:2] B4A8 | 
[V:3] G4E6D2 | 
[V:4] z12 | 
[V:5] G,,4A,,8 | 
[V:1] D8z4 | 
[V:2] A8z4 | 
[V:3] D12 | 
[V:4] z12 | 
[V:5] D,4z4z4 | 
[V:1] F8F4- | 
[V:2] d8d4- | 
[V:3] A8A4- | 
[V:4] z12 | 
[V:5] D,8D,4- | 
[V:1] F4F8 | 
[V:2] d4c8 | 
[V:3] A4A8 | 
[V:4] z12 | 
[V:5] D,4F,8 | 
[V:1] E12 | 
[V:2] c6B2c4 | 
[V:3] G12 | 
[V:4] z12 | 
[V:5] C,6D,2E,4 | 
[V:1] C4D6E2 | 
[V:2] A4B6c2 | 
[V:3] A4F6G2 | 
[V:4] z12 | 
[V:5] F,4D,6C,2 | 
[V:1] E8z4 | 
[V:2] c8z4 | 
[V:3] G12- | 
[V:4] z12 | 
[V:5] C,8z4 | 
[V:1] z12 | 
[V:2] e8e4 | 
[V:3] G12 | 
[V:4] z12 | 
[V:5] C,8C,4 | 
[V:1] G8G4 | 
[V:2] e8d2c2 | 
[V:3] z12 | 
[V:4] z12 | 
[V:5] C,8B,,2A,,2 | 
[V:1] G8F2E2 | 
[V:2] d8G4 | 
[V:3] _B8_B4 | 
[V:4] z12 | 
[V:5] G,,12- | 
[V:1] D12- | 
[V:2] d8c2B2 | 
[V:3] _B8A2G2 | 
[V:4] z12 | 
[V:5] G,,12 | 
[V:1] D4F8 | 
[V:2] A8A4 | 
[V:3] F8F4 | 
[V:4] z12 | 
[V:5] D,6E,2F,4 | 
[V:1] E6F2G4 | 
[V:2] c6d2d4- | 
[V:3] G8G4 | 
[V:4] z12 | 
[V:5] C,6B,,2G,,4 | 
[V:1] F4E6D2 | 
[V:2] d2c2c4d4 | 
[V:3] A8F4 | 
[V:4] z12 | 
[V:5] D,4A,,4_B,,4- | 
[V:1] D8^C4 | 
[V:2] G4A8 | 
[V:3] D4E8 | 
[V:4] z12 | 
[V:5] B,,4A,,8 | 
[V:1] D12 ||  
[V:2] A12 ||  
[V:3] D12 ||  
[V:4] z12 ||  
[V:5] D,12 ||  
[V:1]  [K:C] [K:clef=treble][M:3/1]z12 | 
[V:2]  [K:C] [K:clef=treble-8][M:3/1]d8B4 | 
[V:3]  [K:C] [K:clef=treble-8][M:3/1]D8D4 | 
[V:4]  [K:C] [K:clef=bass][M:3/1]z12 | 
[V:5]  [K:C] [K:clef=bass][M:3/1]D,8G,,4 | 
[V:1] A8G4 | 
[V:2] A4z2c4G2 | 
[V:3] C12 | 
[V:4] E,8E,4 | 
[V:5] A,,8E,,4 | 
[V:1] E8E4 | 
[V:2] A2E2A8 | 
[V:3] C12 | 
[V:4] A,,8C,4 | 
[V:5] z4A,,8 | 
[V:1] G6F2G4 | 
[V:2] B2d4c2d2G2 | 
[V:3] D12 | 
[V:4] B,,2G,,4A,,2_B,,4 | 
[V:5] G,,2_B,,4A,,2G,,4 | 
[V:1] A6F4ED | 
[V:2] c4A4F3G | 
[V:3] F8z4 | 
[V:4] A,,8_B,,4 | 
[V:5] F,,8z4 | 
[V:1] C4z2A4A2 | 
[V:2] A8z2c2- | 
[V:3] z2F4F2F3E | 
[V:4] A,,12 | 
[V:5] z2F,,4F,,2F,,4 | 
[V:1] A4c6B2 | 
[V:2] c2c2c6d2 | 
[V:3] E12 | 
[V:4] z2C,4C,2E,4 | 
[V:5] A,,8C,4 | 
[V:1] B8z2G2 | 
[V:2] d8z2d2 | 
[V:3] D4D2D2D4 | 
[V:4] G,12 | 
[V:5] G,,12 | 
[V:1] G2G2F2F2D4 | 
[V:2] e2e2d2d2B4- | 
[V:3] C4D4z2D2 | 
[V:4] z12 | 
[V:5] z4z4G,,4 | 
[V:1] z2G2G2G2F2F2 | 
[V:2] B4z4z4 | 
[V:3] D2D2D3CD4 | 
[V:4] G,,4G,,2G,,2A,,4 | 
[V:5] G,,2G,,2E,,2E,,2D,,4- | 
[V:1] D4z2A4A2 | 
[V:2] z4z2d2d2d2 | 
[V:3] z2F2D2F3EFE | 
[V:4] D,4A,,8- | 
[V:5] D,,12 | 
[V:1] A6F2G4 | 
[V:2] c2ABc2d4^c2 | 
[V:3] F2E2F4E4 | 
[V:4] A,,4z4C,4 | 
[V:5] z12 | 
[V:1] F12- | 
[V:2] d12- | 
[V:3] D12- | 
[V:4] F,3E,D,2C,2B,,4 | 
[V:5] D,,12- | 
[V:1] F12 ||  
[V:2] d12 ||  
[V:3] D12 ||  
[V:4] A,,12 ||  
[V:5] D,,12 ||  
[V:1]  [K:C] [K:clef=treble][M:3/1]z12 | 
[V:2]  [K:C] [K:clef=treble-8][M:3/1]z12 | 
[V:3]  [K:C] [K:clef=treble-8][M:3/1]E12- | 
[V:4]  [K:C] [K:clef=bass][M:3/1]z12 | 
[V:5]  [K:C] [K:clef=bass][M:3/1]A,,8B,,4 | 
[V:1] z12 | 
[V:2] z12 | 
[V:3] E8F4 | 
[V:4] z12 | 
[V:5] C,6B,,2A,,4 | 
[V:1] z12 | 
[V:2] z12 | 
[V:3] G6F2E4 | 
[V:4] z12 | 
[V:5] G,,8z4 | 
[V:1] [M:2/1]z8 | 
[V:2] [M:2/1]z8 | 
[V:3] [M:2/1](3:2:2D8z4 | 
[V:4] [M:2/1]z8 | 
[V:5] [M:4/2]G,,4G,,2G,,2- | 
[V:1] z8 | 
[V:2] z8 | 
[V:3] [M:4/2]D4D2D2- | 
[V:4] z8 | 
[V:5] G,,2F,,2G,,2_B,,2- | 
[V:1] z8 | 
[V:2] z8 | 
[V:3] D2C2D4 | 
[V:4] z8 | 
[V:5] B,,2A,,2G,,4 | 
[V:1] z8 | 
[V:2] z8 | 
[V:3] F3ED4 | 
[V:4] z8 | 
[V:5] F,,8 | 
[V:1] z8 | 
[V:2] z8 | 
[V:3] C4z4 | 
[V:4] z8 | 
[V:5] z2C,4B,,2 | 
[V:1] z8 | 
[V:2] z8 | 
[V:3] z2G4F2 | 
[V:4] z8 | 
[V:5] C,4D,4 | 
[V:1] z8 | 
[V:2] z8 | 
[V:3] G4A4 | 
[V:4] z8 | 
[V:5] G,,4z2C,2- | 
[V:1] z8 | 
[V:2] z8 | 
[V:3] G8 | 
[V:4] z8 | 
[V:5] C,2B,,2C,2G,,2- | 
[V:1] z8 | 
[V:2] z8 | 
[V:3] G4G2G2 | 
[V:4] z8 | 
[V:5] G,,2C,2B,,2C,2- | 
[V:1] z8 | 
[V:2] z8 | 
[V:3] E2G4F2 | 
[V:4] z8 | 
[V:5] C,B,,A,,G,,A,,2_B,,2- | 
[V:1] z8 | 
[V:2] z8 | 
[V:3] GFEDE4 | 
[V:4] z8 | 
[V:5] B,,A,,D,4^C,2 | 
[V:1] z8 | 
[V:2] (3:2:2A8B4 | 
[V:3] D8 | 
[V:4] z8 | 
[V:5] D,8 | 
[V:1] [M:3/1]F6E2E4 | 
[V:2] [M:3/1]d6c2c4 | 
[V:3] [M:3/1]z12 | 
[V:4] [M:3/1]z12 | 
[V:5] [M:3/1]z12 | 
[V:1] D4F4E4 | 
[V:2] d4A4c4 | 
[V:3] z12 | 
[V:4] z12 | 
[V:5] z12 | 
[V:1] D4F6E2 | 
[V:2] B4A4_B4- | 
[V:3] z12 | 
[V:4] z12 | 
[V:5] z12 | 
[V:1] D8F4 | 
[V:2] B2A2G4F4 | 
[V:3] z12 | 
[V:4] z12 | 
[V:5] z12 | 
[V:1] E2C2D4C4 | 
[V:2] c4_B2G2A4 | 
[V:3] z12 | 
[V:4] z12 | 
[V:5] z12 | 
[V:1] G8G4- | 
[V:2] G8z4 | 
[V:3] z4E8 | 
[V:4] z12 | 
[V:5] G,,8G,,4 | 
[V:1] G4F4A4- | 
[V:2] d6c2A4 | 
[V:3] D4F6E2 | 
[V:4] z12 | 
[V:5] _B,,6A,,2F,,4 | 
[V:1] A2G2E6D2 | 
[V:2] c8B4- | 
[V:3] C8G4- | 
[V:4] z12 | 
[V:5] A,,8G,,4- | 
[V:1] G6F2E2D2 | 
[V:2] B4c8 | 
[V:3] G4G8 | 
[V:4] z12 | 
[V:5] G,,4C,8 | 
[V:1] D8^C4 | 
[V:2] A12 | 
[V:3] F4E8 | 
[V:4] z12 | 
[V:5] D,4A,,8 | 
[V:1] D8z4 | 
[V:2] z12 | 
[V:3] D8z4 | 
[V:4] z12 | 
[V:5] z4D,4E,4 | 
[V:1] D8E4 | 
[V:2] A4_B6A2 | 
[V:3] z12 | 
[V:4] z12 | 
[V:5] F,4G,8 | 
[V:1] F4G8 | 
[V:2] A4_B4c4 | 
[V:3] z12 | 
[V:4] z12 | 
[V:5] D,4z4C,4 | 
[V:1] D4z4G4 | 
[V:2] A4c6d2 | 
[V:3] A6G2G4 | 
[V:4] z12 | 
[V:5] D,4_E,8 | 
[V:1] F6D2D4 | 
[V:2] d8d4 | 
[V:3] A4_B8 | 
[V:4] z12 | 
[V:5] D,4_B,,8 | 
[V:1] E6C2D4 | 
[V:2] c4A4_B4 | 
[V:3] G6E2F4 | 
[V:4] z12 | 
[V:5] C,6_B,,2B,,4 | 
[V:1] C6B,2B,4 | 
[V:2] G8z4 | 
[V:3] E4D8 | 
[V:4] z12 | 
[V:5] C,4G,,8 | 
[V:1] C12 | 
[V:2] E4E4E4 | 
[V:3] C12- | 
[V:4] z12 | 
[V:5] G,8z4 | 
[V:1] z12 | 
[V:2] G6F2E2D2 | 
[V:3] C12 | 
[V:4] z12 | 
[V:5] E,4E,4E,4 | 
[V:1] E4E4E4 | 
[V:2] C8z4 | 
[V:3] z12 | 
[V:4] z12 | 
[V:5] G,6F,2E,2D,2 | 
[V:1] G6F2E4 | 
[V:2] c6B2B4- | 
[V:3] E4E4E4 | 
[V:4] z12 | 
[V:5] C,8G,,4- | 
[V:1] D4E4D4 | 
[V:2] B4c4d4- | 
[V:3] G8G4- | 
[V:4] z12 | 
[V:5] G,,4C,4B,,4 | 
[V:1] G6F2F4 | 
[V:2] d4d8 | 
[V:3] G4A6G2 | 
[V:4] z12 | 
[V:5] G,,4D,8 | 
[V:1] G4E4F4 | 
[V:2] e8z4 | 
[V:3] E6D2D4 | 
[V:4] z12 | 
[V:5] C,6B,,2B,,4 | 
[V:1] E6D2C4 | 
[V:2] c6B2A4 | 
[V:3] G4A4E4- | 
[V:4] z12 | 
[V:5] C,4A,,4C,4 | 
[V:1] B,4E6D2 | 
[V:2] G4B8 | 
[V:3] E4G8 | 
[V:4] z12 | 
[V:5] G,,12 | 
[V:1] D6C2C4 | 
[V:2] B6A2A4 | 
[V:3] G6F2E4 | 
[V:4] z12 | 
[V:5] z4z4A,,4 | 
[V:1] F6E2E4 | 
[V:2] F4A4_B4 | 
[V:3] D4C4G4- | 
[V:4] z12 | 
[V:5] _B,,4A,,4G,,4 | 
[V:1] D4F6E2 | 
[V:2] d6c2A4 | 
[V:3] G2F2D2E2F4- | 
[V:4] z12 | 
[V:5] _B,,6A,,2F,,4 | 
[V:1] D6^C2C4 | 
[V:2] G4A8 | 
[V:3] F2D2E8 | 
[V:4] z12 | 
[V:5] _B,,4A,,8 | 
[V:1] D12 ||  
[V:2] A12 ||  
[V:3] D12 ||  
[V:4] z12 ||  
[V:5] D,12 ||  



